dist/assets/img/icons/lung.svg

<svg width="76" height="76" viewBox="0 0 76 76" fill="none" xmlns="http://www.w3.org/2000/svg">
<g filter="url(#filter0_b_1_29)">
<circle cx="38" cy="38" r="38" fill="white" fill-opacity="0.75"/>
</g>
<path d="M57.9797 35.9354C57.8477 36.6559 57.7665 37.3865 57.594 38.0968C56.8022 41.2731 55.3201 44.0536 52.8636 46.2556C51.7267 47.2806 50.4172 47.9909 48.8641 48.2142C45.6666 48.681 42.6619 45.9106 42.8852 42.6836C42.9055 42.4401 42.9461 42.2067 42.9664 41.9631C43.0172 41.4963 43.2405 41.1513 43.5856 40.8266C43.9511 40.4816 44.2962 40.0959 44.5703 39.6799C45.0271 39 44.9662 38.381 44.3673 37.833C43.9105 37.4169 43.3725 37.0922 42.8548 36.7573C42.7736 36.6964 42.5807 36.7269 42.4792 36.7878C41.5757 37.2444 41.0783 37.9852 41.0783 39C41.0682 41.1919 41.0783 43.3838 41.0783 45.5859C41.0783 47.9909 41.0783 50.4061 41.0783 52.8111C41.0783 53.0039 41.0682 53.1967 41.0174 53.3692C40.8855 53.7954 40.4896 54.039 40.0429 53.9781C39.6166 53.9274 39.3019 53.6026 39.2613 53.1764C39.2512 53.0851 39.2512 53.0039 39.2512 52.9126C39.2512 48.3055 39.2512 43.7086 39.2512 39.1015C39.2512 36.9704 40.5809 35.2859 42.6111 34.8293C42.9664 34.7481 43.342 34.7379 43.7074 34.7176C44.1947 34.6973 44.9053 34.2204 45.0981 33.7739C44.4789 33.2766 43.8293 32.8301 43.2709 32.2822C42.6213 31.6428 41.9716 30.9832 41.4844 30.2222C39.779 27.6142 40.6317 24.8946 43.4943 23.6768C45.5042 22.8244 47.575 22.8244 49.6356 23.413C53.3103 24.4582 55.7059 26.9241 57.0458 30.4251C57.462 31.5109 57.6346 32.6982 57.9289 33.8348C57.9492 33.916 57.9695 34.0073 58 34.0885C57.9797 34.7176 57.9797 35.3265 57.9797 35.9354Z" fill="#00A7B5"/>
<path d="M19 34.1088C19.1827 33.2665 19.3045 32.4141 19.5482 31.5921C20.4414 28.5478 22.096 26.0413 24.9079 24.4481C27.4862 22.9969 30.2168 22.5707 33.0692 23.5348C33.6377 23.7276 34.1858 24.032 34.6731 24.3872C36.3379 25.5948 36.8251 27.4518 36.0029 29.3495C35.4141 30.7295 34.399 31.7748 33.2723 32.7084C32.8256 33.0838 32.3485 33.4187 31.8511 33.8043C32.2369 34.3117 32.6835 34.7176 33.3636 34.7278C35.6273 34.7582 37.3326 36.2093 37.6981 38.4317C37.7285 38.6448 37.7387 38.8579 37.7387 39.071C37.7387 43.6984 37.7387 48.3258 37.7387 52.9633C37.7387 53.1358 37.7184 53.3185 37.6473 53.4809C37.4951 53.8462 37.1905 54.0187 36.7946 53.9984C36.3988 53.9882 36.1145 53.7853 35.9826 53.4098C35.9217 53.2272 35.9115 53.0141 35.9115 52.8111C35.9115 48.2446 35.9014 43.6781 35.9115 39.1116C35.9115 38.0765 35.475 37.3155 34.5716 36.8081C34.3686 36.6964 34.1858 36.6559 33.9828 36.8182C33.526 37.1734 33.0083 37.4677 32.5921 37.8634C32.0237 38.4013 31.9729 39 32.3993 39.6494C32.6632 40.0452 32.9576 40.4511 33.323 40.7454C33.861 41.1818 34.0336 41.7399 34.0843 42.3792C34.4193 46.4485 30.5924 49.3101 26.7655 47.8691C25.2022 47.2806 23.9537 46.2556 22.898 44.9973C20.7561 42.4502 19.4568 39.5277 19.0711 36.2093C19.0609 36.1079 19.0305 36.0165 19.0102 35.9151C19 35.3265 19 34.7176 19 34.1088Z" fill="#00A7B5"/>
<defs>
<filter id="filter0_b_1_29" x="-15" y="-15" width="106" height="106" filterUnits="userSpaceOnUse" color-interpolation-filters="sRGB">
<feFlood flood-opacity="0" result="BackgroundImageFix"/>
<feGaussianBlur in="BackgroundImageFix" stdDeviation="7.5"/>
<feComposite in2="SourceAlpha" operator="in" result="effect1_backgroundBlur_1_29"/>
<feBlend mode="normal" in="SourceGraphic" in2="effect1_backgroundBlur_1_29" result="shape"/>
</filter>
</defs>
</svg>

<svg width="76" height="76" fill="none" xmlns="http://www.w3.org/2000/svg"><g filter="url(#filter0_b_1_29)"><circle cx="38" cy="38" r="38" fill="#fff" fill-opacity=".75"/></g><path d="M57.98 35.935c-.132.72-.213 1.451-.386 2.162-.792 3.176-2.274 5.957-4.73 8.159-1.137 1.025-2.447 1.735-4 1.958-3.197.467-6.202-2.303-5.979-5.53.02-.244.061-.477.081-.72.051-.468.274-.813.62-1.137.365-.345.71-.731.984-1.147.457-.68.396-1.299-.203-1.847-.456-.416-.994-.74-1.512-1.076-.081-.06-.274-.03-.376.03-.903.457-1.4 1.198-1.4 2.213-.01 2.192 0 4.384 0 6.586v7.225c0 .193-.01.386-.062.558a.869.869 0 01-.974.61.877.877 0 01-.782-.803c-.01-.09-.01-.172-.01-.263V39.102c0-2.132 1.33-3.816 3.36-4.273.355-.08.731-.091 1.096-.111.488-.02 1.198-.498 1.391-.944-.62-.497-1.269-.944-1.827-1.492-.65-.64-1.3-1.299-1.787-2.06-1.705-2.608-.852-5.327 2.01-6.545 2.01-.853 4.081-.853 6.142-.264 3.674 1.045 6.07 3.511 7.41 7.012.416 1.086.589 2.273.883 3.41.02.081.04.172.071.254-.02.629-.02 1.238-.02 1.846zM19 34.109c.183-.843.305-1.695.548-2.517.893-3.044 2.548-5.55 5.36-7.144 2.578-1.451 5.309-1.877 8.161-.913a6.093 6.093 0 011.604.852c1.665 1.208 2.152 3.065 1.33 4.962-.589 1.38-1.604 2.426-2.73 3.36-.447.375-.925.71-1.422 1.095.386.508.833.914 1.513.924 2.263.03 3.969 1.481 4.334 3.704.03.213.04.426.04.639v13.892c0 .173-.02.355-.09.518-.153.365-.458.538-.853.517-.396-.01-.68-.213-.812-.588a1.938 1.938 0 01-.072-.599c0-4.566-.01-9.133 0-13.7 0-1.034-.436-1.795-1.34-2.303-.202-.112-.385-.152-.588.01-.457.355-.975.65-1.39 1.045-.57.538-.62 1.137-.194 1.786.264.396.559.802.924 1.096.538.437.71.995.761 1.634.335 4.07-3.492 6.931-7.319 5.49-1.563-.588-2.811-1.613-3.867-2.872-2.142-2.547-3.441-5.47-3.827-8.788-.01-.101-.04-.193-.06-.294C19 35.327 19 34.718 19 34.11z" fill="#00A7B5"/><defs><filter id="filter0_b_1_29" x="-15" y="-15" width="106" height="106" filterUnits="userSpaceOnUse" color-interpolation-filters="sRGB"><feFlood flood-opacity="0" result="BackgroundImageFix"/><feGaussianBlur in="BackgroundImageFix" stdDeviation="7.5"/><feComposite in2="SourceAlpha" operator="in" result="effect1_backgroundBlur_1_29"/><feBlend in="SourceGraphic" in2="effect1_backgroundBlur_1_29" result="shape"/></filter></defs></svg>
